src/assets/banco-libre.svg

<?xml version="1.0" encoding="UTF-8" standalone="no"?>
<svg
   width="174"
   height="36"
   viewBox="0 0 174 36"
   fill="none"
   version="1.1"
   id="svg6"
   xmlns="http://www.w3.org/2000/svg"
   xmlns:svg="http://www.w3.org/2000/svg">
  <path
     d="M24.4843 18.1369L24.3118 17.9915L24.4843 17.8591C24.6056 17.7709 24.7189 17.6696 24.8072 17.5733C26.0937 16.2989 26.8036 14.5973 26.8036 12.7743C26.8036 9.03923 23.7624 6 20.0292 6H8.85598L10.9767 9.09237H20.0302C22.0587 9.09237 23.7112 10.7418 23.7112 12.7743C23.7112 13.758 23.3242 14.6775 22.6263 15.3704C21.9204 16.0763 20.9969 16.4633 20.0302 16.4633H15.0808L18.829 11.0968H15.0588L12.1128 15.3072L6.10253 6.7009L3.40121 8.26112L9.13975 16.4633H0V19.5567H9.13875L3.40021 27.7589L6.10152 29.3192L12.1118 20.7128L15.0578 24.9233H18.828L15.0798 19.5567H20.0292C22.0577 19.5567 23.7102 21.2012 23.7102 23.2297C23.7102 24.2103 23.3232 25.1378 22.6293 25.8397C21.9234 26.5296 20.9999 26.9116 20.0292 26.9116H10.9707L10.9767 26.9297L8.87103 30H20.0302C21.8402 30 23.5388 29.3031 24.8082 28.0327C26.0947 26.7542 26.8046 25.0496 26.8046 23.2297C26.8046 21.2794 25.9573 19.4193 24.4843 18.1369Z"
     id="path2"
     style="fill:#ffffff" />
  <path
     d="M37.7071 9.1775H46.1858C46.9383 9.1775 47.6121 9.29125 48.2071 9.51875C48.8196 9.74625 49.3358 10.0612 49.7558 10.4637C50.1758 10.8662 50.4908 11.365 50.7008 11.96C50.9283 12.5375 51.0421 13.1762 51.0421 13.8762C51.0421 14.5762 50.9458 15.1712 50.7533 15.6612C50.5783 16.1337 50.3333 16.5275 50.0183 16.8425C49.7208 17.1575 49.3708 17.3937 48.9683 17.5512C48.5833 17.7087 48.1808 17.7962 47.7608 17.8137V17.9712C48.1633 17.9712 48.5921 18.05 49.0471 18.2075C49.5196 18.365 49.9483 18.6187 50.3333 18.9687C50.7358 19.3012 51.0683 19.7387 51.3308 20.2812C51.5933 20.8062 51.7246 21.4625 51.7246 22.25C51.7246 22.985 51.6021 23.6762 51.3571 24.3237C51.1296 24.9537 50.8058 25.505 50.3858 25.9775C49.9658 26.45 49.4671 26.8262 48.8896 27.1062C48.3121 27.3687 47.6821 27.5 46.9996 27.5H37.7071V9.1775ZM41.1721 24.56H46.0021C46.6671 24.56 47.1833 24.3937 47.5508 24.0612C47.9183 23.7112 48.1021 23.2125 48.1021 22.565V21.6725C48.1021 21.025 47.9183 20.5262 47.5508 20.1762C47.1833 19.8262 46.6671 19.6512 46.0021 19.6512H41.1721V24.56ZM41.1721 16.8162H45.4508C46.0808 16.8162 46.5708 16.65 46.9208 16.3175C47.2708 15.9675 47.4458 15.4862 47.4458 14.8737V14.06C47.4458 13.4475 47.2708 12.975 46.9208 12.6425C46.5708 12.2925 46.0808 12.1175 45.4508 12.1175H41.1721V16.8162ZM64.9831 27.5C64.2481 27.5 63.6618 27.29 63.2243 26.87C62.8043 26.4325 62.5418 25.855 62.4368 25.1375H62.2793C62.0518 26.03 61.5881 26.7037 60.8881 27.1587C60.1881 27.5962 59.3218 27.815 58.2893 27.815C56.8893 27.815 55.8131 27.4475 55.0606 26.7125C54.3081 25.9775 53.9318 24.9975 53.9318 23.7725C53.9318 22.355 54.4393 21.305 55.4543 20.6225C56.4693 19.9225 57.9131 19.5725 59.7856 19.5725H62.1218V18.575C62.1218 17.805 61.9206 17.21 61.5181 16.79C61.1156 16.37 60.4681 16.16 59.5756 16.16C58.7881 16.16 58.1493 16.335 57.6593 16.685C57.1868 17.0175 56.7843 17.42 56.4518 17.8925L54.4568 16.1075C54.9643 15.32 55.6381 14.69 56.4781 14.2175C57.3181 13.7275 58.4293 13.4825 59.8118 13.4825C61.6668 13.4825 63.0756 13.9025 64.0381 14.7425C65.0006 15.5825 65.4818 16.79 65.4818 18.365V24.8225H66.8468V27.5H64.9831ZM59.4181 25.3737C60.1706 25.3737 60.8093 25.2075 61.3343 24.875C61.8593 24.5425 62.1218 24.0525 62.1218 23.405V21.5937H59.9693C58.2193 21.5937 57.3443 22.1537 57.3443 23.2737V23.72C57.3443 24.28 57.5193 24.7 57.8693 24.98C58.2368 25.2425 58.7531 25.3737 59.4181 25.3737ZM69.5662 27.5V13.7975H72.9262V16.0812H73.0574C73.3374 15.3462 73.7749 14.7337 74.3699 14.2438C74.9824 13.7362 75.8224 13.4825 76.8899 13.4825C78.3074 13.4825 79.3924 13.9462 80.1449 14.8737C80.8974 15.8012 81.2737 17.1225 81.2737 18.8375V27.5H77.9137V19.1787C77.9137 18.1987 77.7387 17.4637 77.3887 16.9737C77.0387 16.4837 76.4612 16.2387 75.6562 16.2387C75.3062 16.2387 74.9649 16.2912 74.6324 16.3962C74.3174 16.4837 74.0287 16.6237 73.7662 16.8162C73.5212 16.9912 73.3199 17.2187 73.1624 17.4987C73.0049 17.7612 72.9262 18.0762 72.9262 18.4437V27.5H69.5662ZM90.4058 27.815C89.3908 27.815 88.4895 27.6487 87.702 27.3162C86.9145 26.9837 86.2495 26.5025 85.707 25.8725C85.182 25.2425 84.7795 24.49 84.4995 23.615C84.2195 22.7225 84.0795 21.725 84.0795 20.6225C84.0795 19.52 84.2195 18.5312 84.4995 17.6562C84.7795 16.7812 85.182 16.0375 85.707 15.425C86.2495 14.795 86.9145 14.3137 87.702 13.9812C88.4895 13.6487 89.3908 13.4825 90.4058 13.4825C91.7883 13.4825 92.9258 13.7887 93.8183 14.4012C94.7283 15.0137 95.3845 15.8625 95.787 16.9475L93.0308 18.1812C92.8733 17.6037 92.5758 17.1312 92.1383 16.7637C91.7183 16.3787 91.1408 16.1862 90.4058 16.1862C89.4608 16.1862 88.752 16.4837 88.2795 17.0787C87.8245 17.6737 87.597 18.4525 87.597 19.415V21.9087C87.597 22.8712 87.8245 23.65 88.2795 24.245C88.752 24.8225 89.4608 25.1112 90.4058 25.1112C91.2108 25.1112 91.832 24.91 92.2695 24.5075C92.707 24.0875 93.0483 23.5712 93.2933 22.9587L95.8658 24.1925C95.4108 25.4 94.7195 26.31 93.792 26.9225C92.8645 27.5175 91.7358 27.815 90.4058 27.815ZM103.762 27.815C102.782 27.815 101.898 27.6487 101.111 27.3162C100.341 26.9837 99.6759 26.5025 99.1159 25.8725C98.5734 25.2425 98.1534 24.49 97.8559 23.615C97.5584 22.7225 97.4096 21.725 97.4096 20.6225C97.4096 19.52 97.5584 18.5312 97.8559 17.6562C98.1534 16.7812 98.5734 16.0375 99.1159 15.425C99.6759 14.795 100.341 14.3137 101.111 13.9812C101.898 13.6487 102.782 13.4825 103.762 13.4825C104.742 13.4825 105.626 13.6487 106.413 13.9812C107.201 14.3137 107.866 14.795 108.408 15.425C108.968 16.0375 109.397 16.7812 109.695 17.6562C109.992 18.5312 110.141 19.52 110.141 20.6225C110.141 21.725 109.992 22.7225 109.695 23.615C109.397 24.49 108.968 25.2425 108.408 25.8725C107.866 26.5025 107.201 26.9837 106.413 27.3162C105.626 27.6487 104.742 27.815 103.762 27.815ZM103.762 25.1112C104.655 25.1112 105.355 24.84 105.862 24.2975C106.37 23.755 106.623 22.9587 106.623 21.9087V19.3625C106.623 18.33 106.37 17.5425 105.862 17C105.355 16.4575 104.655 16.1862 103.762 16.1862C102.887 16.1862 102.196 16.4575 101.688 17C101.181 17.5425 100.927 18.33 100.927 19.3625V21.9087C100.927 22.9587 101.181 23.755 101.688 24.2975C102.196 24.84 102.887 25.1112 103.762 25.1112ZM113.33 27.5V9.1775H116.795V24.4287H124.013V27.5H113.33ZM128.489 11.8025C127.789 11.8025 127.281 11.645 126.966 11.33C126.669 11.015 126.52 10.6125 126.52 10.1225V9.5975C126.52 9.1075 126.669 8.705 126.966 8.39C127.281 8.075 127.789 7.9175 128.489 7.9175C129.171 7.9175 129.67 8.075 129.985 8.39C130.3 8.705 130.457 9.1075 130.457 9.5975V10.1225C130.457 10.6125 130.3 11.015 129.985 11.33C129.67 11.645 129.171 11.8025 128.489 11.8025ZM126.809 13.7975H130.169V27.5H126.809V13.7975ZM134.063 8.075H137.423V16.055H137.528C137.773 15.2675 138.237 14.6462 138.919 14.1912C139.602 13.7187 140.398 13.4825 141.308 13.4825C143.058 13.4825 144.388 14.1037 145.298 15.3462C146.226 16.5712 146.689 18.33 146.689 20.6225C146.689 22.9325 146.226 24.7087 145.298 25.9512C144.388 27.1937 143.058 27.815 141.308 27.815C140.398 27.815 139.602 27.5787 138.919 27.1062C138.254 26.6337 137.791 26.0037 137.528 25.2162H137.423V27.5H134.063V8.075ZM140.232 25.0325C141.107 25.0325 141.816 24.7437 142.358 24.1662C142.901 23.5887 143.172 22.81 143.172 21.83V19.4675C143.172 18.4875 142.901 17.7087 142.358 17.1312C141.816 16.5362 141.107 16.2387 140.232 16.2387C139.427 16.2387 138.753 16.44 138.211 16.8425C137.686 17.245 137.423 17.7787 137.423 18.4437V22.8012C137.423 23.5187 137.686 24.07 138.211 24.455C138.753 24.84 139.427 25.0325 140.232 25.0325ZM149.803 27.5V13.7975H153.163V16.6325H153.294C153.382 16.265 153.513 15.915 153.688 15.5825C153.88 15.2325 154.125 14.9262 154.423 14.6637C154.72 14.4012 155.07 14.1912 155.473 14.0337C155.893 13.8762 156.374 13.7975 156.917 13.7975H157.652V16.9737H156.602C155.464 16.9737 154.607 17.14 154.029 17.4725C153.452 17.805 153.163 18.3475 153.163 19.1V27.5H149.803ZM165.519 27.815C164.504 27.815 163.594 27.6487 162.789 27.3162C162.001 26.9662 161.327 26.485 160.767 25.8725C160.225 25.2425 159.805 24.49 159.507 23.615C159.21 22.7225 159.061 21.725 159.061 20.6225C159.061 19.5375 159.201 18.5575 159.481 17.6825C159.779 16.8075 160.199 16.0637 160.741 15.4512C161.284 14.8212 161.949 14.34 162.736 14.0075C163.524 13.6575 164.416 13.4825 165.414 13.4825C166.481 13.4825 167.409 13.6662 168.196 14.0337C168.984 14.4012 169.631 14.9 170.139 15.53C170.646 16.16 171.022 16.895 171.267 17.735C171.53 18.5575 171.661 19.4412 171.661 20.3862V21.4887H162.552V21.83C162.552 22.8275 162.832 23.6325 163.392 24.245C163.952 24.84 164.784 25.1375 165.886 25.1375C166.726 25.1375 167.409 24.9625 167.934 24.6125C168.476 24.2625 168.957 23.8162 169.377 23.2737L171.189 25.295C170.629 26.0825 169.859 26.7037 168.879 27.1587C167.916 27.5962 166.796 27.815 165.519 27.815ZM165.466 16.0025C164.574 16.0025 163.865 16.3 163.34 16.895C162.815 17.49 162.552 18.26 162.552 19.205V19.415H168.17V19.1787C168.17 18.2337 167.934 17.4725 167.461 16.895C167.006 16.3 166.341 16.0025 165.466 16.0025Z"
     id="path4"
     style="fill:#ffffff" />
</svg>

<svg xmlns="http://www.w3.org/2000/svg" width="174" height="36" fill="none" viewBox="0 0 174 36"><path d="m24.484 18.137-.172-.146.172-.132c.122-.088.235-.19.323-.286a6.7 6.7 0 0 0 1.997-4.799C26.804 9.04 23.762 6 20.029 6H8.856l2.12 3.092h9.054a3.685 3.685 0 0 1 3.681 3.682 3.63 3.63 0 0 1-1.085 2.596 3.66 3.66 0 0 1-2.596 1.093h-4.95l3.749-5.366h-3.77l-2.946 4.21-6.01-8.606L3.4 8.26l5.739 8.202H0v3.094h9.139L3.4 27.759l2.702 1.56 6.01-8.606 2.946 4.21h3.77l-3.748-5.366h4.95a3.68 3.68 0 0 1 3.68 3.673c0 .98-.387 1.908-1.08 2.61a3.7 3.7 0 0 1-2.6 1.072h-9.06l.007.018L8.87 30h11.16c1.81 0 3.508-.697 4.777-1.967a6.72 6.72 0 0 0 1.997-4.803c0-1.95-.848-3.81-2.32-5.093m13.223-8.959h8.479q1.128 0 2.021.34a4.4 4.4 0 0 1 1.549.946q.63.603.945 1.496.34.866.341 1.916 0 1.05-.289 1.785-.263.71-.735 1.182a2.9 2.9 0 0 1-1.05.708 3.6 3.6 0 0 1-1.207.263v.157q.603 0 1.286.236a3.6 3.6 0 0 1 1.286.762q.604.498.998 1.312.393.787.394 1.969a5.8 5.8 0 0 1-.368 2.074 5 5 0 0 1-.971 1.653q-.63.71-1.496 1.13A4.5 4.5 0 0 1 47 27.5h-9.293zm3.465 15.382h4.83q.997 0 1.549-.499.55-.525.551-1.496v-.893q0-.97-.551-1.496-.552-.525-1.549-.525h-4.83zm0-7.744h4.279q.945 0 1.47-.498.525-.526.525-1.444v-.814q0-.919-.525-1.418-.525-.524-1.47-.524h-4.279zM64.983 27.5q-1.102 0-1.759-.63-.63-.656-.787-1.733h-.158q-.34 1.34-1.39 2.022-1.05.656-2.6.656-2.1 0-3.228-1.103-1.13-1.102-1.13-2.94 0-2.126 1.523-3.15 1.523-1.05 4.332-1.05h2.336v-.997q0-1.155-.604-1.785-.603-.63-1.942-.63-1.182 0-1.917.525a5 5 0 0 0-1.207 1.207l-1.995-1.784a5.7 5.7 0 0 1 2.021-1.89q1.26-.735 3.334-.735 2.783 0 4.226 1.26t1.444 3.622v6.458h1.365V27.5zm-5.565-2.126q1.129 0 1.916-.499.788-.499.788-1.47v-1.811h-2.153q-2.625 0-2.625 1.68v.446q0 .84.525 1.26.552.393 1.55.394M69.566 27.5V13.798h3.36v2.283h.131a4.34 4.34 0 0 1 1.313-1.837q.918-.761 2.52-.761 2.126 0 3.255 1.39 1.128 1.393 1.129 3.964V27.5h-3.36v-8.321q0-1.47-.525-2.205t-1.733-.735q-.525 0-1.024.157a2.7 2.7 0 0 0-.866.42 2.1 2.1 0 0 0-.604.683q-.236.393-.236.945V27.5zm20.84.315q-1.522 0-2.704-.499a5.3 5.3 0 0 1-1.995-1.444q-.787-.945-1.207-2.257-.42-1.338-.42-2.992 0-1.655.42-2.967t1.207-2.231a5.3 5.3 0 0 1 1.995-1.444q1.182-.498 2.704-.498 2.073 0 3.412.918 1.365.92 1.969 2.547l-2.756 1.233a2.75 2.75 0 0 0-.893-1.417q-.63-.578-1.732-.578-1.417 0-2.127.893-.681.893-.682 2.336v2.494q0 1.443.683 2.336.708.866 2.126.866 1.208 0 1.863-.604.658-.63 1.024-1.548l2.573 1.233q-.683 1.812-2.074 2.73-1.39.893-3.386.893m13.356 0q-1.47 0-2.651-.499a5.6 5.6 0 0 1-1.995-1.444q-.814-.945-1.26-2.257-.447-1.338-.446-2.992 0-1.655.446-2.967.445-1.312 1.26-2.231a5.6 5.6 0 0 1 1.995-1.444q1.18-.498 2.651-.498t2.651.498a5.3 5.3 0 0 1 1.995 1.444q.84.919 1.287 2.231.446 1.313.446 2.967 0 1.653-.446 2.992-.447 1.313-1.287 2.258a5.3 5.3 0 0 1-1.995 1.443q-1.18.5-2.651.499m0-2.704q1.34 0 2.1-.814.761-.813.761-2.388v-2.546q0-1.549-.761-2.363-.76-.814-2.1-.814-1.312 0-2.074.814-.76.814-.761 2.363v2.546q0 1.575.761 2.389.762.813 2.074.813m9.568 2.389V9.178h3.465v15.25h7.218V27.5zm15.159-15.697q-1.05 0-1.523-.473-.446-.472-.446-1.207v-.525q0-.735.446-1.208.473-.473 1.523-.473 1.023 0 1.496.473.472.472.472 1.207v.526q0 .735-.472 1.207-.473.473-1.496.473m-1.68 1.994h3.36V27.5h-3.36zm7.254-5.722h3.36v7.98h.105a3.4 3.4 0 0 1 1.391-1.864q1.024-.708 2.389-.709 2.625 0 3.99 1.864 1.392 1.838 1.391 5.276 0 3.465-1.391 5.33-1.365 1.863-3.99 1.863-1.365 0-2.389-.709a3.7 3.7 0 0 1-1.391-1.89h-.105V27.5h-3.36zm6.169 16.958q1.313 0 2.126-.867.814-.866.814-2.336v-2.362q0-1.47-.814-2.337-.813-.892-2.126-.892-1.208 0-2.021.604-.788.604-.788 1.6v4.358q0 1.077.788 1.654.813.578 2.021.578m9.571 2.467V13.798h3.36v2.835h.131a4.5 4.5 0 0 1 .394-1.05 3.38 3.38 0 0 1 1.785-1.55q.63-.236 1.444-.236h.735v3.177h-1.05q-1.707 0-2.573.498-.866.499-.866 1.628v8.4zm15.716.315q-1.523 0-2.73-.499a6 6 0 0 1-2.022-1.444q-.813-.945-1.26-2.257-.446-1.338-.446-2.992 0-1.628.42-2.94.447-1.313 1.26-2.232a5.3 5.3 0 0 1 1.995-1.444q1.182-.524 2.678-.524 1.601 0 2.782.55a5.36 5.36 0 0 1 1.943 1.497q.76.945 1.128 2.205.394 1.234.394 2.651v1.103h-9.109v.341q0 1.497.84 2.415.84.892 2.494.892 1.26 0 2.048-.524a5.8 5.8 0 0 0 1.443-1.34l1.812 2.022q-.84 1.181-2.31 1.864-1.444.656-3.36.656m-.053-11.812q-1.338 0-2.126.892-.788.893-.788 2.31v.21h5.618v-.236q0-1.417-.709-2.284-.683-.892-1.995-.892" style="fill:#fff"/></svg>
